img/icons/skype.svg

<svg width="20" height="20" viewBox="0 0 20 20" fill="none" xmlns="http://www.w3.org/2000/svg">
<path d="M10 18C12.1217 18 14.1566 17.1571 15.6569 15.6569C17.1571 14.1566 18 12.1217 18 10C18 7.87827 17.1571 5.84344 15.6569 4.34315C14.1566 2.84285 12.1217 2 10 2C7.87827 2 5.84344 2.84285 4.34315 4.34315C2.84285 5.84344 2 7.87827 2 10C2 12.1217 2.84285 14.1566 4.34315 15.6569C5.84344 17.1571 7.87827 18 10 18V18ZM10 20C4.477 20 0 15.523 0 10C0 4.477 4.477 0 10 0C15.523 0 20 4.477 20 10C20 15.523 15.523 20 10 20Z" fill="#D9D9D9"/>
<path d="M14.583 10.7242C14.6972 10.0012 14.6387 9.26156 14.4124 8.56555C14.186 7.86953 13.7983 7.23692 13.2808 6.7194C12.7632 6.20188 12.1306 5.81412 11.4346 5.5878C10.7386 5.36147 9.99891 5.30301 9.27599 5.41718C8.7387 5.08592 8.10536 4.94564 7.47845 5.01902C6.85153 5.0924 6.26771 5.37515 5.82145 5.82153C5.37518 6.26791 5.09258 6.85181 5.01936 7.47874C4.94614 8.10568 5.08659 8.73898 5.41799 9.27618C5.30359 9.99915 5.3619 10.7389 5.58814 11.435C5.81438 12.1312 6.20214 12.7639 6.71971 13.2814C7.23729 13.799 7.87 14.1868 8.56612 14.413C9.26224 14.6393 10.002 14.6976 10.725 14.5832C11.2623 14.9149 11.8958 15.0556 12.523 14.9825C13.1502 14.9093 13.7344 14.6266 14.1809 14.1801C14.6274 13.7336 14.9101 13.1494 14.9833 12.5222C15.0564 11.895 14.9157 11.2615 14.584 10.7242H14.583ZM12.203 12.1102C12.006 12.3932 11.718 12.6132 11.341 12.7722C10.964 12.9322 10.518 13.0112 10.002 13.0112C9.38499 13.0112 8.87399 12.9022 8.46999 12.6842C8.19058 12.5339 7.95123 12.3189 7.77199 12.0572C7.59299 11.7952 7.50199 11.5392 7.50199 11.2892C7.5015 11.2177 7.51602 11.147 7.54462 11.0815C7.57322 11.0161 7.61525 10.9574 7.66799 10.9092C7.78171 10.8032 7.93264 10.7465 8.08799 10.7512C8.21681 10.7482 8.34231 10.7923 8.44099 10.8752C8.54818 10.9744 8.63071 11.0974 8.68199 11.2342C8.76099 11.4172 8.84599 11.5692 8.93699 11.6912C9.02699 11.8112 9.15399 11.9112 9.31799 11.9902C9.48099 12.0692 9.69799 12.1082 9.96799 12.1082C10.339 12.1082 10.638 12.0282 10.868 11.8702C11.098 11.7102 11.209 11.5162 11.209 11.2812C11.2126 11.1972 11.1982 11.1135 11.1668 11.0355C11.1354 10.9576 11.0878 10.8872 11.027 10.8292C10.8897 10.7039 10.7255 10.6119 10.547 10.5602C10.2836 10.4809 10.0167 10.4141 9.74699 10.3602C9.3607 10.2816 8.98269 10.1668 8.61799 10.0172C8.33446 9.90149 8.08449 9.71651 7.89099 9.47918C7.71099 9.24918 7.62099 8.96518 7.62099 8.62718C7.62099 8.30618 7.71599 8.01718 7.90599 7.76718C8.09599 7.51718 8.36999 7.32418 8.72799 7.19018C9.08499 7.05618 9.50399 6.99018 9.98499 6.99018C10.37 6.99018 10.702 7.03418 10.984 7.12218C11.264 7.21218 11.499 7.32918 11.686 7.47718C11.872 7.62418 12.009 7.78018 12.096 7.94318C12.182 8.10618 12.226 8.26618 12.226 8.42218C12.2247 8.56967 12.165 8.71064 12.06 8.81418C12.0072 8.87047 11.9431 8.91497 11.872 8.94478C11.8008 8.9746 11.7241 8.98904 11.647 8.98718C11.5 8.98718 11.384 8.95318 11.304 8.88118C11.226 8.81118 11.144 8.70118 11.054 8.54618C10.9584 8.35082 10.8212 8.17878 10.652 8.04218C10.5 7.92418 10.249 7.86218 9.89999 7.86418C9.57599 7.86418 9.31799 7.93018 9.12299 8.05918C8.92599 8.19018 8.83299 8.34218 8.83299 8.52118C8.83299 8.63218 8.86499 8.72718 8.92899 8.80718C9.00463 8.89624 9.09838 8.96816 9.20399 9.01818C9.32099 9.07818 9.44099 9.12518 9.56099 9.15918C9.68199 9.19318 9.88399 9.24318 10.164 9.30918C10.515 9.38518 10.834 9.46918 11.12 9.56218C11.406 9.65418 11.65 9.76618 11.852 9.89918C12.055 10.0322 12.213 10.2012 12.327 10.4062C12.441 10.6102 12.497 10.8612 12.497 11.1552C12.498 11.5092 12.399 11.8282 12.203 12.1102V12.1102Z" fill="#D9D9D9"/>
</svg>

<?xml version="1.0" encoding="utf-8"?>
<!-- Generator: Adobe Illustrator 24.0.3, SVG Export Plug-In . SVG Version: 6.00 Build 0)  -->
<svg version="1.1" id="Слой_1" xmlns="http://www.w3.org/2000/svg" xmlns:xlink="http://www.w3.org/1999/xlink" x="0px" y="0px"
	 viewBox="0 0 20 20" style="enable-background:new 0 0 20 20;" xml:space="preserve">
<path d="M10,18c2.1,0,4.2-0.8,5.7-2.3c1.5-1.5,2.3-3.5,2.3-5.7c0-2.1-0.8-4.2-2.3-5.7C14.2,2.8,12.1,2,10,2C7.9,2,5.8,2.8,4.3,4.3
	C2.8,5.8,2,7.9,2,10c0,2.1,0.8,4.2,2.3,5.7C5.8,17.2,7.9,18,10,18L10,18z M10,20C4.5,20,0,15.5,0,10S4.5,0,10,0s10,4.5,10,10
	S15.5,20,10,20z"/>
<path d="M14.6,10.7c0.1-0.7,0.1-1.5-0.2-2.2c-0.2-0.7-0.6-1.3-1.1-1.8c-0.5-0.5-1.2-0.9-1.8-1.1C10.7,5.4,10,5.3,9.3,5.4
	C8.7,5.1,8.1,4.9,7.5,5C6.9,5.1,6.3,5.4,5.8,5.8C5.4,6.3,5.1,6.9,5,7.5C4.9,8.1,5.1,8.7,5.4,9.3c-0.1,0.7-0.1,1.5,0.2,2.2
	c0.2,0.7,0.6,1.3,1.1,1.8c0.5,0.5,1.2,0.9,1.8,1.1c0.7,0.2,1.4,0.3,2.2,0.2c0.5,0.3,1.2,0.5,1.8,0.4c0.6-0.1,1.2-0.4,1.7-0.8
	c0.4-0.4,0.7-1,0.8-1.7C15.1,11.9,14.9,11.3,14.6,10.7L14.6,10.7z M12.2,12.1c-0.2,0.3-0.5,0.5-0.9,0.7C11,12.9,10.5,13,10,13
	c-0.6,0-1.1-0.1-1.5-0.3c-0.3-0.2-0.5-0.4-0.7-0.6c-0.2-0.3-0.3-0.5-0.3-0.8c0-0.1,0-0.1,0-0.2c0-0.1,0.1-0.1,0.1-0.2
	c0.1-0.1,0.3-0.2,0.4-0.2c0.1,0,0.3,0,0.4,0.1c0.1,0.1,0.2,0.2,0.2,0.4c0.1,0.2,0.2,0.3,0.3,0.5C9,11.8,9.2,11.9,9.3,12
	c0.2,0.1,0.4,0.1,0.6,0.1c0.4,0,0.7-0.1,0.9-0.2c0.2-0.2,0.3-0.4,0.3-0.6c0-0.1,0-0.2,0-0.2c0-0.1-0.1-0.1-0.1-0.2
	c-0.1-0.1-0.3-0.2-0.5-0.3c-0.3-0.1-0.5-0.1-0.8-0.2C9.4,10.3,9,10.2,8.6,10C8.3,9.9,8.1,9.7,7.9,9.5C7.7,9.2,7.6,9,7.6,8.6
	c0-0.3,0.1-0.6,0.3-0.9c0.2-0.2,0.5-0.4,0.8-0.6C9.1,7.1,9.5,7,10,7c0.4,0,0.7,0,1,0.1c0.3,0.1,0.5,0.2,0.7,0.4
	c0.2,0.1,0.3,0.3,0.4,0.5c0.1,0.2,0.1,0.3,0.1,0.5c0,0.1-0.1,0.3-0.2,0.4c-0.1,0.1-0.1,0.1-0.2,0.1c-0.1,0-0.1,0-0.2,0
	c-0.1,0-0.3,0-0.3-0.1c-0.1-0.1-0.2-0.2-0.2-0.3C11,8.4,10.8,8.2,10.7,8c-0.2-0.1-0.4-0.2-0.8-0.2c-0.3,0-0.6,0.1-0.8,0.2
	C8.9,8.2,8.8,8.3,8.8,8.5c0,0.1,0,0.2,0.1,0.3C9,8.9,9.1,9,9.2,9c0.1,0.1,0.2,0.1,0.4,0.1c0.1,0,0.3,0.1,0.6,0.2
	c0.4,0.1,0.7,0.2,1,0.3c0.3,0.1,0.5,0.2,0.7,0.3c0.2,0.1,0.4,0.3,0.5,0.5c0.1,0.2,0.2,0.5,0.2,0.7C12.5,11.5,12.4,11.8,12.2,12.1
	L12.2,12.1z"/>
</svg>
